X: 1
T:Eavesdropper
M:6/8
L:1/8
Q:80
C:Trad. arr. R. Moore
S:Jig
K:HP
|: e|
{g}A{d}A{e}A{gcd}cB{G}A|
{Gdc}de{g}f{gef}ec{g}A|
{Gdc}de{g}f{gef}ec{g}B|  !
c{d}B{e}B{GdGe}B2e|
{g}A{d}A{e}A{gcd}cB{G}A|
{Gdc}de{g}f{gef}ec{g}A|  !
{Gdc}de{g}f{gef}ec{g}B|
c{d}A{e}A{GAG}A2:| |:
e|  !
{g}{g}a2{g}a{g}aec|
{Gdc}de{g}f{gef}ec{g}A|
{Gdc}de{g}f{gef}ec{g}B|  !
c{d}B{e}B{GdGe}B2e|
{g}{g}a2{g}a{g}aec|
{Gdc}de{g}f{gef}ec{g}A|  !
{Gdc}de{g}f{gef}ec{g}B|
c{d}A{e}A{GAG}A2:|
